packages/icons/svg/24/Settings.svg

<svg width="24" height="24" viewBox="0 0 24 24" fill="none" xmlns="http://www.w3.org/2000/svg">
<path fill-rule="evenodd" clip-rule="evenodd" d="M19.5 12C19.5 12.6098 19.724 13.21 20.2044 13.5856L21.54 14.63C21.73 14.78 21.78 15.05 21.66 15.27L19.66 18.73C19.54 18.95 19.28 19.04 19.05 18.95L17.4614 18.312C16.9017 18.0873 16.2755 18.1827 15.7556 18.4885C15.2283 18.7986 14.8166 19.3019 14.7298 19.9074L14.49 21.58C14.46 21.82 14.25 22 14 22H9.99996C9.74996 22 9.53996 21.82 9.50996 21.58L9.26917 19.9008C9.18293 19.2994 8.77538 18.8015 8.25032 18.4957C7.72622 18.1905 7.0946 18.0887 6.53178 18.3147L4.94996 18.95C4.72996 19.03 4.45996 18.95 4.33996 18.73L2.33996 15.27C2.21996 15.05 2.26996 14.78 2.45996 14.63L3.79551 13.5856C4.27589 13.21 4.49996 12.6098 4.49996 12C4.49996 11.3902 4.27589 10.79 3.79551 10.4144L2.45996 9.37C2.26996 9.22 2.20996 8.95 2.33996 8.73L4.33996 5.27C4.45996 5.05 4.71996 4.96 4.94996 5.05L6.53849 5.68796C7.09818 5.91274 7.72442 5.81728 8.24432 5.51155C8.77167 5.20143 9.18329 4.69812 9.27012 4.09255L9.50996 2.42C9.53996 2.18 9.74996 2 9.99996 2H14C14.25 2 14.46 2.18 14.49 2.42L14.7307 4.09917C14.817 4.70064 15.2245 5.19847 15.7496 5.50427C16.2737 5.80951 16.9053 5.9113 17.4681 5.68527L19.05 5.05C19.27 4.97 19.54 5.05 19.66 5.27L21.66 8.73C21.78 8.95 21.73 9.22 21.54 9.37L20.2044 10.4144C19.724 10.79 19.5 11.3902 19.5 12ZM8.49997 12C8.49997 13.93 10.07 15.5 12 15.5C13.93 15.5 15.5 13.93 15.5 12C15.5 10.07 13.93 8.5 12 8.5C10.07 8.5 8.49997 10.07 8.49997 12Z" fill="#858585"/>
</svg>

<svg width="24" height="24" fill="none" xmlns="http://www.w3.org/2000/svg" viewBox="0 0 24 24"><path fill-rule="evenodd" clip-rule="evenodd" d="M19.5 12c0 .61.224 1.21.704 1.586l1.336 1.044c.19.15.24.42.12.64l-2 3.46c-.12.22-.38.31-.61.22l-1.589-.638c-.56-.225-1.185-.13-1.705.176-.528.31-.94.814-1.026 1.42l-.24 1.672c-.03.24-.24.42-.49.42h-4c-.25 0-.46-.18-.49-.42l-.24-1.68c-.087-.6-.495-1.098-1.02-1.404-.524-.305-1.155-.407-1.718-.181l-1.582.635c-.22.08-.49 0-.61-.22l-2-3.46a.505.505 0 01.12-.64l1.336-1.044c.48-.376.704-.976.704-1.586 0-.61-.224-1.21-.704-1.586L2.46 9.37a.493.493 0 01-.12-.64l2-3.46c.12-.22.38-.31.61-.22l1.588.638c.56.225 1.186.13 1.706-.176.528-.31.94-.814 1.026-1.42l.24-1.672c.03-.24.24-.42.49-.42h4c.25 0 .46.18.49.42l.24 1.68c.087.6.495 1.098 1.02 1.404.524.306 1.155.407 1.718.181l1.582-.635c.22-.08.49 0 .61.22l2 3.46c.12.22.07.49-.12.64l-1.336 1.044c-.48.376-.704.976-.704 1.586zm-11 0c0 1.93 1.57 3.5 3.5 3.5s3.5-1.57 3.5-3.5-1.57-3.5-3.5-3.5-3.5 1.57-3.5 3.5z" fill="currentColor"></path></svg>
